!!!OTL-incipit: ICH WASS WOHL, WENN'S GUT WANDERN IS
!!!ARE: Europa, Mitteleuropa, Deutschland, Kuhlaendchen
!!!SCT: Z0225
!!!YEM: Copyright 1995, estate of Helmut Schaffrath.
**kern	**text
*ICvox	*
*M2/4	*
*k[b-]	*
*F:	*
!LO:TX:a:t=Aus dem Kuhländchen.	!
{8f	Jch
=1	=1
8f	waß
8a	wohl,
8a	wenn's
8cc	gut
=2	=2
8cc	wan-
8dd	-dern
4dd}	is,
=3	=3
{8cc	wenn
8b-/	das
8b-/	Steigle
8a	.
=4	=4
8a	fan-
8cc	-dig
4cc}	is,
=5	=5
{8a	und
8cc	das
8cc	Lindle
8b-	.
=6	=6
8b-/	lau-
8a	-big
4a}	is,
=7	=7
{8a	und
8cc	das
8cc	Steigle
8b-	.
=8	=8
4b-/	ſtaubig
4a	.
=9	=9
4a	is.
8r}	.
==	==
!!!AGN: Handwerker - Lied, Abschieds - Lied
!!!ONB: ESAC (Essen Associative Code) Database: ZUCCAL
!!!AMT: simple duple
!!!AIN: vox
!!!EED: Helmut Schaffrath
!!!EEV: 1.0
!!!GTL: III. Soldaten-, Jaeger-, Schiffer-, Fuhrmanns- und Handwerks-Lieder.
!!!URL-scan: https://www.digitale-sammlungen.de/de/view/bsb11160571?page=420
!!!ENC: Anna Maria Matuszewska
!!!EEV: 2025/01/29
*-	*-
